icons/paste-without-attribute-24.svg

<?xml version="1.0" encoding="UTF-8"?><svg id="icons" xmlns="http://www.w3.org/2000/svg" viewBox="0 0 24 24"><defs><style>.cls-1{fill:none;}.cls-1,.cls-2{stroke-width:0px;}</style></defs><rect class="cls-1" width="24" height="24"/><path class="cls-2" d="M14,15v1h-1.52539l-1-1h2.52539ZM6.47461,10h8.52539v8.52539l1,1v-10.52539H5.47461l1,1ZM4,19h1v-1h-1v1ZM9.47461,13h4.52539v-1h-5.52539l1,1ZM1.35352,6.64648l16,16-.70703.70703-1.35352-1.35352H2v-13h.29297l-1.64648-1.64648.70703-.70703ZM3,21h11.29297l-2-2h-6.29297v-1h5.29297l-2-2h-3.29297v-1h2.29297l-2-2h-.29297v-.29297l-2.70703-2.70703h-.29297v11ZM4,16h1v-1h-1v1ZM20,3v18h-2.58667c-.05017-.08319-.10394-.16522-.17603-.2373l-.2373-.2373v-.52539h2V4h-2v2H7v-2h-2v4h-.52539l-.47461-.47461V3h3v-1h3c0-1.10461.89545-2,2-2s2,.89539,2,2h3v1h3ZM16,3h-3v-1.3855c0-.33942-.27515-.6145-.6145-.6145h-.771c-.33936,0-.6145.27509-.6145.6145v1.3855h-3v2h8v-2ZM4,13h1v-1h-1v1Z"/></svg>

<svg xmlns="http://www.w3.org/2000/svg" viewBox="0 0 24 24"><path stroke-width="0" fill="none" d="M0 0h24v24H0z"/><path d="M14 15v1h-1.525l-1-1H14zm-7.525-5H15v8.525l1 1V9H5.475l1 1zM4 19h1v-1H4v1zm5.475-6H14v-1H8.475l1 1zM1.354 6.646l16 16-.708.708L15.293 22H2V9h.293L.646 7.354l.708-.708zM3 21h11.293l-2-2H6v-1h5.293l-2-2H6v-1h2.293l-2-2H6v-.293L3.293 10H3v11zm1-5h1v-1H4v1zM20 3v18h-2.587a1.206 1.206 0 0 0-.176-.237L17 20.525V20h2V4h-2v2H7V4H5v4h-.525L4 7.525V3h3V2h3a2 2 0 1 1 4 0h3v1h3zm-4 0h-3V1.615A.614.614 0 0 0 12.385 1h-.77a.614.614 0 0 0-.615.615V3H8v2h8V3zM4 13h1v-1H4v1z" stroke-width="0"/></svg>
